assets/images/svg/svg-external-link.svg

<svg width="18" height="18" viewBox="0 0 18 18" fill="none" xmlns="http://www.w3.org/2000/svg">
<path d="M15.75 2.25L16.25 2.25L16.25 1.75L15.75 1.75L15.75 2.25ZM7.89645 9.39645C7.70118 9.59171 7.70118 9.90829 7.89645 10.1036C8.09171 10.2988 8.40829 10.2988 8.60355 10.1036L7.89645 9.39645ZM9.75 2.75L15.75 2.75L15.75 1.75L9.75 1.75L9.75 2.75ZM15.25 2.25L15.25 8.25L16.25 8.25L16.25 2.25L15.25 2.25ZM15.3964 1.89645L7.89645 9.39645L8.60355 10.1036L16.1036 2.60355L15.3964 1.89645Z" fill="white"/>
<path d="M6.75 3V3C6.05302 3 5.70453 3 5.41473 3.05764C4.22466 3.29436 3.29436 4.22466 3.05764 5.41473C3 5.70453 3 6.05302 3 6.75L3 9C3 11.8284 3 13.2426 3.87868 14.1213C4.75736 15 6.17157 15 9 15L11.25 15C11.947 15 12.2955 15 12.5853 14.9424C13.7753 14.7056 14.7056 13.7753 14.9424 12.5853C15 12.2955 15 11.947 15 11.25V11.25" stroke="white" stroke-linecap="round"/>
</svg>

<svg width="18" height="18" fill="none" xmlns="http://www.w3.org/2000/svg">
  <path d="M15.75 2.25h.5v-.5h-.5v.5ZM7.896 9.396a.5.5 0 0 0 .708.708l-.708-.708ZM9.75 2.75h6v-1h-6v1Zm5.5-.5v6h1v-6h-1Zm.146-.354-7.5 7.5.708.708 7.5-7.5-.708-.708Z" fill="#fff"/>
  <path d="M6.75 3v0c-.697 0-1.045 0-1.335.058a3 3 0 0 0-2.357 2.357C3 5.705 3 6.053 3 6.75V9c0 2.828 0 4.243.879 5.121C4.757 15 6.172 15 9 15h2.25c.697 0 1.046 0 1.335-.058a3 3 0 0 0 2.357-2.357c.058-.29.058-.638.058-1.335v0" stroke="#fff" stroke-linecap="round"/>
</svg>
